;FLAVOR:Marlin
;TIME:5819
;Filament used: 6.01089m, 0m
;Layer height: 0.2
;MINX:47.2
;MINY:54.7
;MINZ:0.2
;MAXX:137.8
;MAXY:145.3
;MAXZ:4
;Generated with Cura_SteamEngine 4.1.0
T0
M140 S60
M105
M190 S60
M104 S200
M105
M109 S200
M82 ;absolute extrusion mode
; -- START GCODE --
G21                     ;set units to millimetres
G90                     ;set to absolute positioning
M107                    ;set fan speed to zero (turned off)
G28 X0 Y0               ;move to the X/Y origin (Home)
G28 Z0                  ;move to the Z origin (Home)
G92 E0                  ;zero the extruded length
G1 F3600                ;set feedrate to 60 mm/sec
M420 S1 
; -- end of START GCODE --
G92 E0
G92 E0
G1 F900 E-1.5
;LAYER_COUNT:20
;LAYER:0
M107
G0 F3600 X49.623 Y56.849 Z0.2
;TYPE:SKIRT
G1 F900 E0
G1 F1800 X50.222 Y56.334 E0.02627
G1 X50.87 Y55.883 E0.05253
G1 X51.561 Y55.499 E0.07883
G1 X52.286 Y55.187 E0.10508
G1 X53.039 Y54.95 E0.13133
G1 X53.813 Y54.791 E0.15761
G1 X54.598 Y54.71 E0.18386
G1 X55 Y54.7 E0.19724
G1 X130 Y54.7 E2.69175
G1 X130.789 Y54.74 E2.71802
G1 X131.569 Y54.859 E2.74427
G1 X132.334 Y55.057 E2.77055
G1 X133.074 Y55.331 E2.79679
G1 X133.783 Y55.679 E2.82306
G1 X134.454 Y56.097 E2.84936
G1 X135.078 Y56.58 E2.8756
G1 X135.651 Y57.123 E2.90186
G1 X136.166 Y57.722 E2.92813
G1 X136.617 Y58.37 E2.95439
G1 X137.001 Y59.061 E2.98068
G1 X137.313 Y59.786 E3.00694
G1 X137.55 Y60.539 E3.03319
G1 X137.709 Y61.313 E3.05947
G1 X137.79 Y62.098 E3.08572
G1 X137.8 Y62.5 E3.0991
G1 X137.8 Y137.5 E5.59361
G1 X137.76 Y138.289 E5.61988
G1 X137.641 Y139.069 E5.64612
G1 X137.443 Y139.834 E5.67241
G1 X137.169 Y140.574 E5.69865
G1 X136.821 Y141.283 E5.72492
G1 X136.403 Y141.954 E5.75121
G1 X135.92 Y142.578 E5.77746
G1 X135.377 Y143.151 E5.80372
G1 X134.778 Y143.666 E5.82999
G1 X134.13 Y144.117 E5.85625
G1 X133.439 Y144.501 E5.88254
G1 X132.714 Y144.813 E5.90879
G1 X131.961 Y145.05 E5.93505
G1 X131.187 Y145.209 E5.96133
G1 X130.402 Y145.29 E5.98758
G1 X130 Y145.3 E6.00095
G1 X55 Y145.3 E8.49546
G1 X54.211 Y145.26 E8.52174
G1 X53.431 Y145.141 E8.54798
G1 X52.666 Y144.943 E8.57426
G1 X51.926 Y144.669 E8.60051
G1 X51.217 Y144.321 E8.62678
G1 X50.546 Y143.903 E8.65307
G1 X49.922 Y143.42 E8.67932
G1 X49.349 Y142.877 E8.70557
G1 X48.834 Y142.278 E8.73185
G1 X48.383 Y141.63 E8.75811
G1 X47.999 Y140.939 E8.7844
G1 X47.687 Y140.214 E8.81065
G1 X47.45 Y139.461 E8.83691
G1 X47.291 Y138.687 E8.86319
G1 X47.21 Y137.902 E8.88944
G1 X47.2 Y137.5 E8.90281
G1 X47.2 Y62.5 E11.39732
G1 X47.24 Y61.711 E11.4236
G1 X47.359 Y60.931 E11.44984
G1 X47.557 Y60.166 E11.47612
G1 X47.831 Y59.426 E11.50237
G1 X48.179 Y58.717 E11.52864
G1 X48.597 Y58.046 E11.55493
G1 X49.08 Y57.422 E11.58118
G1 X49.623 Y56.849 E11.60743
G0 F3600 X50.016 Y57.03
G1 F1800 X50.611 Y56.542 E11.63303
G1 X51.253 Y56.119 E11.6586
G1 X51.936 Y55.764 E11.6842
G1 X52.651 Y55.483 E11.70975
G1 X53.393 Y55.277 E11.73536
G1 X54.151 Y55.149 E11.76093
G1 X55 Y55.1 E11.78922
G1 X130 Y55.1 E14.28373
G1 X130.768 Y55.14 E14.30931
G1 X131.528 Y55.259 E14.33489
G1 X132.271 Y55.457 E14.36047
G1 X132.99 Y55.731 E14.38606
G1 X133.676 Y56.078 E14.41163
G1 X134.323 Y56.494 E14.43721
G1 X134.923 Y56.975 E14.46279
G1 X135.47 Y57.516 E14.48838
G1 X135.958 Y58.111 E14.51397
G1 X136.381 Y58.753 E14.53954
G1 X136.736 Y59.436 E14.56514
G1 X137.017 Y60.151 E14.5907
G1 X137.223 Y60.893 E14.61631
G1 X137.351 Y61.651 E14.64188
G1 X137.4 Y62.5 E14.67016
G1 X137.4 Y137.5 E17.16467
G1 X137.36 Y138.268 E17.19025
G1 X137.241 Y139.028 E17.21584
G1 X137.043 Y139.771 E17.24141
G1 X136.769 Y140.49 E17.267
G1 X136.422 Y141.176 E17.29257
G1 X136.006 Y141.823 E17.31815
G1 X135.525 Y142.423 E17.34373
G1 X134.984 Y142.97 E17.36932
G1 X134.389 Y143.458 E17.39491
G1 X133.747 Y143.881 E17.42049
G1 X133.064 Y144.236 E17.44609
G1 X132.349 Y144.517 E17.47164
G1 X131.607 Y144.723 E17.49725
G1 X130.849 Y144.851 E17.52282
G1 X130 Y144.9 E17.55111
G1 X55 Y144.9 E20.04562
G1 X54.232 Y144.86 E20.07119
G1 X53.472 Y144.741 E20.09678
G1 X52.729 Y144.543 E20.12235
G1 X52.01 Y144.269 E20.14795
G1 X51.324 Y143.922 E20.17351
G1 X50.677 Y143.506 E20.1991
G1 X50.077 Y143.025 E20.22468
G1 X49.53 Y142.484 E20.25026
G1 X49.042 Y141.889 E20.27586
G1 X48.619 Y141.247 E20.30143
G1 X48.264 Y140.564 E20.32703
G1 X47.983 Y139.849 E20.35258
G1 X47.777 Y139.107 E20.3782
G1 X47.649 Y138.349 E20.40376
G1 X47.6 Y137.5 E20.43205
G1 X47.6 Y62.5 E22.92656
G1 X47.64 Y61.732 E22.95214
G1 X47.759 Y60.972 E22.97772
G1 X47.957 Y60.229 E23.0033
G1 X48.231 Y59.51 E23.02889
G1 X48.578 Y58.824 E23.05446
G1 X48.994 Y58.177 E23.08004
G1 X49.475 Y57.577 E23.10562
G1 X50.016 Y57.03 E23.13121
G0 F3600 X50.408 Y57.216
G1 F1800 X50.998 Y56.757 E23.15607
G1 X51.634 Y56.362 E23.18097
G1 X52.308 Y56.038 E23.20584
G1 X53.013 Y55.788 E23.23072
G1 X53.741 Y55.614 E23.25562
G1 X54.483 Y55.519 E23.2805
G1 X55 Y55.5 E23.29771
G1 X130 Y55.5 E25.79222
G1 X130.747 Y55.54 E25.8171
G1 X131.485 Y55.659 E25.84196
G1 X132.207 Y55.857 E25.86686
G1 X132.903 Y56.13 E25.89173
G1 X133.566 Y56.477 E25.91662
G1 X134.189 Y56.892 E25.94151
G1 X134.763 Y57.371 E25.96638
G1 X135.284 Y57.908 E25.99126
G1 X135.743 Y58.498 E26.01613
G1 X136.138 Y59.134 E26.04103
G1 X136.462 Y59.808 E26.0659
G1 X136.712 Y60.513 E26.09078
G1 X136.886 Y61.241 E26.11568
G1 X136.981 Y61.983 E26.14056
G1 X137 Y62.5 E26.15776
G1 X137 Y137.5 E28.65227
G1 X136.96 Y138.247 E28.67715
G1 X136.841 Y138.985 E28.70202
G1 X136.643 Y139.707 E28.72692
G1 X136.37 Y140.403 E28.75178
G1 X136.023 Y141.066 E28.77667
G1 X135.608 Y141.689 E28.80157
G1 X135.129 Y142.263 E28.82644
G1 X134.592 Y142.784 E28.85132
G1 X134.002 Y143.243 E28.87618
G1 X133.366 Y143.638 E28.90109
G1 X132.692 Y143.962 E28.92596
G1 X131.987 Y144.212 E28.95084
G1 X131.259 Y144.386 E28.97573
G1 X130.517 Y144.481 E29.00061
G1 X130 Y144.5 E29.01782
G1 X55 Y144.5 E31.51233
G1 X54.253 Y144.46 E31.53721
G1 X53.515 Y144.341 E31.56207
G1 X52.793 Y144.143 E31.58697
G1 X52.097 Y143.87 E31.61184
G1 X51.434 Y143.523 E31.63673
G1 X50.811 Y143.108 E31.66163
G1 X50.237 Y142.629 E31.68649
G1 X49.716 Y142.092 E31.71138
G1 X49.257 Y141.502 E31.73624
G1 X48.862 Y140.866 E31.76114
G1 X48.538 Y140.192 E31.78602
G1 X48.288 Y139.487 E31.81089
G1 X48.114 Y138.759 E31.83579
G1 X48.019 Y138.017 E31.86067
G1 X48 Y137.5 E31.87788
G1 X48 Y62.5 E34.37239
G1 X48.04 Y61.753 E34.39727
G1 X48.159 Y61.015 E34.42213
G1 X48.357 Y60.293 E34.44703
G1 X48.63 Y59.597 E34.4719
G1 X48.977 Y58.934 E34.49679
G1 X49.392 Y58.311 E34.52168
G1 X49.871 Y57.737 E34.54655
G1 X50.408 Y57.216 E34.57144
G0 F3600 X50.265 Y57.902
G1 F1800 X50.799 Y57.409 E34.59561
G1 X51.384 Y56.979 E34.61976
G1 X52.013 Y56.615 E34.64393
G1 X52.678 Y56.322 E34.6681
G1 X53.371 Y56.104 E34.69226
G1 X54.083 Y55.964 E34.71639
G1 X55 Y55.9 E34.74697
G1 X130 Y55.9 E37.24148
G1 X130.725 Y55.94 E37.26563
G1 X131.442 Y56.059 E37.2898
G1 X132.141 Y56.257 E37.31397
G1 X132.814 Y56.53 E37.33812
G1 X133.453 Y56.875 E37.36227
G1 X134.05 Y57.289 E37.38644
G1 X134.598 Y57.765 E37.41058
G1 X135.091 Y58.299 E37.43475
G1 X135.521 Y58.884 E37.4589
G1 X135.885 Y59.513 E37.48307
G1 X136.178 Y60.178 E37.50724
G1 X136.396 Y60.871 E37.5314
G1 X136.536 Y61.583 E37.55554
G1 X136.6 Y62.5 E37.58611
G1 X136.6 Y137.5 E40.08062
G1 X136.56 Y138.225 E40.10477
G1 X136.441 Y138.942 E40.12895
G1 X136.243 Y139.641 E40.15311
G1 X135.97 Y140.314 E40.17727
G1 X135.625 Y140.953 E40.20142
G1 X135.211 Y141.55 E40.22558
G1 X134.735 Y142.098 E40.24973
G1 X134.201 Y142.591 E40.2739
G1 X133.616 Y143.021 E40.29805
G1 X132.987 Y143.385 E40.32222
G1 X132.322 Y143.678 E40.34639
G1 X131.629 Y143.896 E40.37055
G1 X130.917 Y144.036 E40.39468
G1 X130 Y144.1 E40.42526
G1 X55 Y144.1 E42.91977
G1 X54.275 Y144.06 E42.94392
G1 X53.558 Y143.941 E42.96809
G1 X52.859 Y143.743 E42.99226
G1 X52.186 Y143.47 E43.01641
G1 X51.547 Y143.125 E43.04056
G1 X50.95 Y142.711 E43.06473
G1 X50.402 Y142.235 E43.08887
G1 X49.909 Y141.701 E43.11304
G1 X49.479 Y141.116 E43.13719
G1 X49.115 Y140.487 E43.16136
G1 X48.822 Y139.822 E43.18553
G1 X48.604 Y139.129 E43.20969
G1 X48.464 Y138.417 E43.23383
G1 X48.4 Y137.5 E43.2644
G1 X48.4 Y62.5 E45.75891
G1 X48.44 Y61.775 E45.78306
G1 X48.559 Y61.058 E45.80724
G1 X48.757 Y60.359 E45.8314
G1 X49.03 Y59.686 E45.85556
G1 X49.375 Y59.047 E45.87971
G1 X49.789 Y58.45 E45.90387
G1 X50.265 Y57.902 E45.92802
G0 F3600 X50.659 Y58.073
G1 F1800 X51.189 Y57.609 E45.95144
G1 X51.768 Y57.209 E45.97485
G1 X52.389 Y56.877 E45.99827
G1 X53.043 Y56.617 E46.02168
G1 X53.723 Y56.433 E46.04511
G1 X54.419 Y56.327 E46.06853
G1 X55 Y56.3 E46.08787
G1 X130 Y56.3 E48.58238
G1 X130.703 Y56.34 E48.6058
G1 X131.397 Y56.459 E48.62922
G1 X132.072 Y56.657 E48.65262
G1 X132.721 Y56.929 E48.67602
G1 X133.335 Y57.274 E48.69945
G1 X133.906 Y57.685 E48.72285
G1 X134.427 Y58.159 E48.74627
G1 X134.891 Y58.689 E48.7697
G1 X135.291 Y59.268 E48.79311
G1 X135.623 Y59.889 E48.81653
G1 X135.883 Y60.543 E48.83994
G1 X136.067 Y61.223 E48.86337
G1 X136.173 Y61.919 E48.88678
G1 X136.2 Y62.5 E48.90613
G1 X136.2 Y137.5 E51.40064
G1 X136.16 Y138.203 E51.42406
G1 X136.041 Y138.897 E51.44748
G1 X135.843 Y139.572 E51.47087
G1 X135.571 Y140.221 E51.49428
G1 X135.226 Y140.835 E51.5177
G1 X134.815 Y141.406 E51.5411
G1 X134.341 Y141.927 E51.56453
G1 X133.811 Y142.391 E51.58796
G1 X133.232 Y142.791 E51.61137
G1 X132.611 Y143.123 E51.63479
G1 X131.957 Y143.383 E51.65819
G1 X131.277 Y143.567 E51.68162
G1 X130.581 Y143.673 E51.70504
G1 X130 Y143.7 E51.72439
G1 X55 Y143.7 E54.2189
G1 X54.297 Y143.66 E54.24232
G1 X53.603 Y143.541 E54.26573
G1 X52.928 Y143.343 E54.28913
G1 X52.279 Y143.071 E54.31254
G1 X51.665 Y142.726 E54.33596
G1 X51.094 Y142.315 E54.35936
G1 X50.573 Y141.841 E54.38279
G1 X50.109 Y141.311 E54.40622
G1 X49.709 Y140.732 E54.42962
G1 X49.377 Y140.111 E54.45304
G1 X49.117 Y139.457 E54.47645
G1 X48.933 Y138.777 E54.49988
G1 X48.827 Y138.081 E54.5233
G1 X48.8 Y137.5 E54.54264
G1 X48.8 Y62.5 E57.03715
G1 X48.84 Y61.797 E57.06057
G1 X48.959 Y61.103 E57.08399
G1 X49.157 Y60.428 E57.10739
G1 X49.429 Y59.779 E57.13079
G1 X49.774 Y59.165 E57.15422
G1 X50.185 Y58.594 E57.17762
G1 X50.659 Y58.073 E57.20105
G0 F3600 X51.053 Y58.251
G1 F1800 X51.578 Y57.817 E57.2237
G1 X52.15 Y57.448 E57.24634
G1 X52.762 Y57.149 E57.269
G1 X53.404 Y56.924 E57.29162
G1 X54.069 Y56.775 E57.31429
G1 X55 Y56.7 E57.34535
G1 X130 Y56.7 E59.83986
G1 X130.68 Y56.74 E59.86252
G1 X131.35 Y56.859 E59.88515
G1 X132.002 Y57.056 E59.90781
G1 X132.626 Y57.328 E59.93045
G1 X133.214 Y57.672 E59.95311
G1 X133.758 Y58.082 E59.97576
G1 X134.249 Y58.553 E59.99839
G1 X134.683 Y59.078 E60.02105
G1 X135.052 Y59.65 E60.04369
G1 X135.351 Y60.262 E60.06634
G1 X135.576 Y60.904 E60.08897
G1 X135.725 Y61.569 E60.11163
G1 X135.8 Y62.5 E60.1427
G1 X135.8 Y137.5 E62.63721
G1 X135.76 Y138.18 E62.65987
G1 X135.641 Y138.85 E62.6825
G1 X135.444 Y139.502 E62.70515
G1 X135.172 Y140.126 E62.72779
G1 X134.828 Y140.714 E62.75045
G1 X134.418 Y141.258 E62.77311
G1 X133.947 Y141.749 E62.79574
G1 X133.422 Y142.183 E62.81839
G1 X132.85 Y142.552 E62.84103
G1 X132.238 Y142.851 E62.86369
G1 X131.596 Y143.076 E62.88631
G1 X130.931 Y143.225 E62.90898
G1 X130 Y143.3 E62.94005
G1 X55 Y143.3 E65.43456
G1 X54.32 Y143.26 E65.45721
G1 X53.65 Y143.141 E65.47985
G1 X52.998 Y142.944 E65.5025
G1 X52.374 Y142.672 E65.52514
G1 X51.786 Y142.328 E65.5478
G1 X51.242 Y141.918 E65.57045
G1 X50.751 Y141.447 E65.59308
G1 X50.317 Y140.922 E65.61574
G1 X49.948 Y140.35 E65.63838
G1 X49.649 Y139.738 E65.66103
G1 X49.424 Y139.096 E65.68366
G1 X49.275 Y138.431 E65.70633
G1 X49.2 Y137.5 E65.73739
G1 X49.2 Y62.5 E68.2319
G1 X49.24 Y61.82 E68.25456
G1 X49.359 Y61.15 E68.27719
G1 X49.556 Y60.498 E68.29985
G1 X49.828 Y59.874 E68.32249
G1 X50.172 Y59.286 E68.34514
G1 X50.582 Y58.742 E68.3678
G1 X51.053 Y58.251 E68.39043
G0 F3600 X51.445 Y58.435
G1 F1800 X51.965 Y58.034 E68.41227
G1 X52.529 Y57.698 E68.43411
G1 X53.131 Y57.434 E68.45597
G1 X53.76 Y57.244 E68.47782
G1 X54.407 Y57.133 E68.49966
G1 X55 Y57.1 E68.51941
G1 X130 Y57.1 E71.01392
G1 X130.656 Y57.14 E71.03578
G1 X131.302 Y57.259 E71.05763
G1 X131.929 Y57.456 E71.07949
G1 X132.527 Y57.728 E71.10134
G1 X133.088 Y58.07 E71.12319
G1 X133.603 Y58.478 E71.14504
G1 X134.065 Y58.945 E71.16689
G1 X134.466 Y59.465 E71.18873
G1 X134.802 Y60.029 E71.21057
G1 X135.066 Y60.631 E71.23243
G1 X135.256 Y61.26 E71.25429
G1 X135.367 Y61.907 E71.27612
G1 X135.4 Y62.5 E71.29587
G1 X135.4 Y137.5 E73.79038
G1 X135.36 Y138.156 E73.81224
G1 X135.241 Y138.802 E73.83409
G1 X135.044 Y139.429 E73.85595
G1 X134.772 Y140.027 E73.8778
G1 X134.43 Y140.588 E73.89965
G1 X134.022 Y141.103 E73.92151
G1 X133.555 Y141.565 E73.94335
G1 X133.035 Y141.966 E73.9652
G1 X132.471 Y142.302 E73.98703
G1 X131.869 Y142.566 E74.00889
G1 X131.24 Y142.756 E74.03075
G1 X130.593 Y142.867 E74.05258
G1 X130 Y142.9 E74.07234
G1 X55 Y142.9 E76.56685
G1 X54.344 Y142.86 E76.5887
G1 X53.698 Y142.741 E76.61055
G1 X53.071 Y142.544 E76.63241
G1 X52.473 Y142.272 E76.65426
G1 X51.912 Y141.93 E76.67611
G1 X51.397 Y141.522 E76.69797
G1 X50.935 Y141.055 E76.71982
G1 X50.534 Y140.535 E76.74166
G1 X50.198 Y139.971 E76.76349
G1 X49.934 Y139.369 E76.78536
G1 X49.744 Y138.74 E76.80721
G1 X49.633 Y138.093 E76.82904
G1 X49.6 Y137.5 E76.8488
G1 X49.6 Y62.5 E79.34331
G1 X49.64 Y61.844 E79.36517
G1 X49.759 Y61.198 E79.38701
G1 X49.956 Y60.571 E79.40887
G1 X50.228 Y59.973 E79.43072
G1 X50.57 Y59.412 E79.45258
G1 X50.978 Y58.897 E79.47443
G1 X51.445 Y58.435 E79.49628
G0 F3600 X51.373 Y59.059
G1 F1800 X51.836 Y58.629 E79.51729
G1 X52.35 Y58.26 E79.53834
G1 X52.906 Y57.96 E79.55935
G1 X53.495 Y57.732 E79.58036
G1 X54.109 Y57.58 E79.6014
G1 X55 Y57.5 E79.63115
G1 X130 Y57.5 E82.12566
G1 X130.631 Y57.54 E82.14669
G1 X131.252 Y57.659 E82.16772
G1 X131.852 Y57.856 E82.18873
G1 X132.424 Y58.127 E82.20978
G1 X132.956 Y58.467 E82.23078
G1 X133.441 Y58.873 E82.25181
G1 X133.871 Y59.336 E82.27283
G1 X134.24 Y59.85 E82.29388
G1 X134.54 Y60.406 E82.31489
G1 X134.768 Y60.995 E82.33589
G1 X134.92 Y61.609 E82.35693
G1 X135 Y62.5 E82.38669
G1 X135 Y137.5 E84.8812
G1 X134.96 Y138.131 E84.90223
G1 X134.841 Y138.752 E84.92326
G1 X134.644 Y139.352 E84.94426
G1 X134.373 Y139.924 E84.96531
G1 X134.033 Y140.456 E84.98631
G1 X133.627 Y140.941 E85.00735
G1 X133.164 Y141.371 E85.02837
G1 X132.65 Y141.74 E85.04941
G1 X132.094 Y142.04 E85.07042
G1 X131.505 Y142.268 E85.09143
G1 X130.891 Y142.42 E85.11247
G1 X130 Y142.5 E85.14222
G1 X55 Y142.5 E87.63673
G1 X54.369 Y142.46 E87.65776
G1 X53.748 Y142.341 E87.67879
G1 X53.148 Y142.144 E87.6998
G1 X52.576 Y141.873 E87.72085
G1 X52.044 Y141.533 E87.74185
G1 X51.559 Y141.127 E87.76288
G1 X51.129 Y140.664 E87.7839
G1 X50.76 Y140.15 E87.80495
G1 X50.46 Y139.594 E87.82596
G1 X50.232 Y139.005 E87.84697
G1 X50.08 Y138.391 E87.868
G1 X50 Y137.5 E87.89776
G1 X50 Y62.5 E90.39227
G1 X50.04 Y61.869 E90.4133
G1 X50.159 Y61.248 E90.43433
G1 X50.356 Y60.648 E90.45533
G1 X50.627 Y60.076 E90.47638
G1 X50.967 Y59.544 E90.49738
G1 X51.373 Y59.059 E90.51842
G0 F3600 X51.767 Y59.228
G1 F1800 X52.225 Y58.831 E90.53858
G1 X52.732 Y58.498 E90.55875
G1 X53.278 Y58.234 E90.57893
G1 X53.854 Y58.045 E90.59909
G1 X54.45 Y57.933 E90.61926
G1 X55 Y57.9 E90.63758
G1 X130 Y57.9 E93.1321
G1 X130.605 Y57.94 E93.15226
G1 X131.199 Y58.059 E93.17241
G1 X131.773 Y58.255 E93.19258
G1 X132.316 Y58.526 E93.21277
G1 X132.819 Y58.865 E93.23294
G1 X133.272 Y59.267 E93.25309
G1 X133.669 Y59.725 E93.27325
G1 X134.002 Y60.232 E93.29342
G1 X134.266 Y60.778 E93.31359
G1 X134.455 Y61.354 E93.33376
G1 X134.567 Y61.95 E93.35393
G1 X134.6 Y62.5 E93.37225
G1 X134.6 Y137.5 E95.86676
G1 X134.56 Y138.105 E95.88693
G1 X134.441 Y138.699 E95.90708
G1 X134.245 Y139.273 E95.92725
G1 X133.974 Y139.816 E95.94744
G1 X133.635 Y140.319 E95.96761
G1 X133.233 Y140.772 E95.98775
G1 X132.775 Y141.169 E96.00791
G1 X132.268 Y141.502 E96.02809
G1 X131.722 Y141.766 E96.04826
G1 X131.146 Y141.955 E96.06842
G1 X130.55 Y142.067 E96.08859
G1 X130 Y142.1 E96.10692
G1 X55 Y142.1 E98.60143
G1 X54.395 Y142.06 E98.6216
G1 X53.801 Y141.941 E98.64174
G1 X53.227 Y141.745 E98.66192
G1 X52.684 Y141.474 E98.6821
